static/img/kroki/8b958947fa4049fcef51a2702568ea66.svg

<?xml version="1.0" encoding="us-ascii" standalone="no"?><svg xmlns="http://www.w3.org/2000/svg" xmlns:xlink="http://www.w3.org/1999/xlink" contentStyleType="text/css" height="374px" preserveAspectRatio="none" style="width:493px;height:374px;" version="1.1" viewBox="0 0 493 374" width="493px" zoomAndPan="magnify"><defs/><g><!--class azure_container_service_managed_cluster_snapshot--><g id="elem_azure_container_service_managed_cluster_snapshot"><rect codeLine="23" fill="#3D176E" height="39.7891" id="azure_container_service_managed_cluster_snapshot" rx="2.5" ry="2.5" style="stroke:#000D19;stroke-width:0.5;" width="479" x="7" y="328.58"/><ellipse cx="22" cy="348.4745" fill="#ADD1B2" rx="11" ry="11" style="stroke:#181818;stroke-width:1.0;"/><path d="M24.9688,354.1152 Q24.3906,354.412 23.75,354.5527 Q23.1094,354.7089 22.4063,354.7089 Q19.9063,354.7089 18.5781,353.0683 Q17.2656,351.412 17.2656,348.287 Q17.2656,345.162 18.5781,343.5058 Q19.9063,341.8495 22.4063,341.8495 Q23.1094,341.8495 23.75,342.0058 Q24.4063,342.162 24.9688,342.4589 L24.9688,345.1777 Q24.3438,344.5995 23.75,344.3339 Q23.1563,344.0527 22.5313,344.0527 Q21.1875,344.0527 20.5,345.1308 Q19.8125,346.1933 19.8125,348.287 Q19.8125,350.3808 20.5,351.4589 Q21.1875,352.5214 22.5313,352.5214 Q23.1563,352.5214 23.75,352.2558 Q24.3438,351.9745 24.9688,351.3964 L24.9688,354.1152 Z " fill="#000000"/><text fill="#D9B8FF" font-family="Helvetica" font-size="17" lengthAdjust="spacing" textLength="437" x="41" y="354.3598">azure_container_service_managed_cluster_snapshot</text></g><!--class microsoft_resource--><g id="elem_microsoft_resource"><rect codeLine="26" fill="#3D176E" height="39.7891" id="microsoft_resource" rx="2.5" ry="2.5" style="stroke:#000D19;stroke-width:0.5;" width="200" x="50.5" y="167.79"/><ellipse cx="65.5" cy="187.6845" fill="#ADD1B2" rx="11" ry="11" style="stroke:#181818;stroke-width:1.0;"/><path d="M68.4688,193.3252 Q67.8906,193.622 67.25,193.7627 Q66.6094,193.9189 65.9063,193.9189 Q63.4063,193.9189 62.0781,192.2783 Q60.7656,190.622 60.7656,187.497 Q60.7656,184.372 62.0781,182.7158 Q63.4063,181.0595 65.9063,181.0595 Q66.6094,181.0595 67.25,181.2158 Q67.9063,181.372 68.4688,181.6689 L68.4688,184.3877 Q67.8438,183.8095 67.25,183.5439 Q66.6563,183.2627 66.0313,183.2627 Q64.6875,183.2627 64,184.3408 Q63.3125,185.4033 63.3125,187.497 Q63.3125,189.5908 64,190.6689 Q64.6875,191.7314 66.0313,191.7314 Q66.6563,191.7314 67.25,191.4658 Q67.8438,191.1845 68.4688,190.6064 L68.4688,193.3252 Z " fill="#000000"/><text fill="#D9B8FF" font-family="Helvetica" font-size="17" lengthAdjust="spacing" textLength="158" x="84.5" y="193.5698">microsoft_resource</text></g><!--class resource--><g id="elem_resource"><rect codeLine="29" fill="#3D176E" height="39.7891" id="resource" rx="2.5" ry="2.5" style="stroke:#000D19;stroke-width:0.5;" width="113" x="190" y="7"/><ellipse cx="205" cy="26.8945" fill="#ADD1B2" rx="11" ry="11" style="stroke:#181818;stroke-width:1.0;"/><path d="M207.9688,32.5352 Q207.3906,32.832 206.75,32.9727 Q206.1094,33.1289 205.4063,33.1289 Q202.9063,33.1289 201.5781,31.4883 Q200.2656,29.832 200.2656,26.707 Q200.2656,23.582 201.5781,21.9258 Q202.9063,20.2695 205.4063,20.2695 Q206.1094,20.2695 206.75,20.4258 Q207.4063,20.582 207.9688,20.8789 L207.9688,23.5977 Q207.3438,23.0195 206.75,22.7539 Q206.1563,22.4727 205.5313,22.4727 Q204.1875,22.4727 203.5,23.5508 Q202.8125,24.6133 202.8125,26.707 Q202.8125,28.8008 203.5,29.8789 Q204.1875,30.9414 205.5313,30.9414 Q206.1563,30.9414 206.75,30.6758 Q207.3438,30.3945 207.9688,29.8164 L207.9688,32.5352 Z " fill="#000000"/><text fill="#D9B8FF" font-family="Helvetica" font-size="17" lengthAdjust="spacing" textLength="71" x="224" y="32.7798">resource</text></g><!--class snapshot--><g id="elem_snapshot"><rect codeLine="32" fill="#3D176E" height="39.7891" id="snapshot" rx="2.5" ry="2.5" style="stroke:#000D19;stroke-width:0.5;" width="117" x="286" y="167.79"/><ellipse cx="301" cy="187.6845" fill="#ADD1B2" rx="11" ry="11" style="stroke:#181818;stroke-width:1.0;"/><path d="M303.9688,193.3252 Q303.3906,193.622 302.75,193.7627 Q302.1094,193.9189 301.4063,193.9189 Q298.9063,193.9189 297.5781,192.2783 Q296.2656,190.622 296.2656,187.497 Q296.2656,184.372 297.5781,182.7158 Q298.9063,181.0595 301.4063,181.0595 Q302.1094,181.0595 302.75,181.2158 Q303.4063,181.372 303.9688,181.6689 L303.9688,184.3877 Q303.3438,183.8095 302.75,183.5439 Q302.1563,183.2627 301.5313,183.2627 Q300.1875,183.2627 299.5,184.3408 Q298.8125,185.4033 298.8125,187.497 Q298.8125,189.5908 299.5,190.6689 Q300.1875,191.7314 301.5313,191.7314 Q302.1563,191.7314 302.75,191.4658 Q303.3438,191.1845 303.9688,190.6064 L303.9688,193.3252 Z " fill="#000000"/><text fill="#D9B8FF" font-family="Helvetica" font-size="17" lengthAdjust="spacing" textLength="75" x="320" y="193.5698">snapshot</text></g><!--reverse link microsoft_resource to azure_container_service_managed_cluster_snapshot--><g id="link_microsoft_resource_azure_container_service_managed_cluster_snapshot"><path codeLine="35" d="M171.3921,223.2441 C189.8421,253.7641 216.4,297.69 234.88,328.25 " fill="none" id="microsoft_resource-backto-azure_container_service_managed_cluster_snapshot" style="stroke:#FFAF37;stroke-width:2.0;"/><polygon fill="none" points="162.08,207.84,166.2574,226.3481,176.5268,220.14,162.08,207.84" style="stroke:#FFAF37;stroke-width:2.0;"/></g><!--reverse link snapshot to azure_container_service_managed_cluster_snapshot--><g id="link_snapshot_azure_container_service_managed_cluster_snapshot"><path codeLine="36" d="M323.225,223.1567 C304.385,253.6767 277.23,297.69 258.36,328.25 " fill="none" id="snapshot-backto-azure_container_service_managed_cluster_snapshot" style="stroke:#FFAF37;stroke-width:2.0;"/><polygon fill="none" points="332.68,207.84,318.1194,220.0051,328.3306,226.3084,332.68,207.84" style="stroke:#FFAF37;stroke-width:2.0;"/></g><!--reverse link resource to microsoft_resource--><g id="link_resource_microsoft_resource"><path codeLine="37" d="M225.6079,62.4541 C207.1579,92.9741 180.6,136.9 162.12,167.46 " fill="none" id="resource-backto-microsoft_resource" style="stroke:#FFAF37;stroke-width:2.0;"/><polygon fill="none" points="234.92,47.05,220.4732,59.35,230.7426,65.5581,234.92,47.05" style="stroke:#FFAF37;stroke-width:2.0;"/></g><!--reverse link resource to snapshot--><g id="link_resource_snapshot"><path codeLine="38" d="M267.775,62.3667 C286.615,92.8867 313.77,136.9 332.64,167.46 " fill="none" id="resource-backto-snapshot" style="stroke:#FFAF37;stroke-width:2.0;"/><polygon fill="none" points="258.32,47.05,262.6694,65.5184,272.8806,59.2151,258.32,47.05" style="stroke:#FFAF37;stroke-width:2.0;"/></g><!--SRC=[dP1DRy8m38Rl_HMHE2F1q0P8km3Ij5tGD7QlJEBGY3Qfx1G4s_xxw60ef7nek_fzR3zsPXGAB4g_4GKMSoHEU6bi2GI5616vzSJbZaHBQz2zVXm-EUjl0bCeK3nZla9l9CJ4UsRaqYApk0kYCSZbWbnbrNwy9x2yYz3wW9ham3podioyyXZ8gE5ye7LCnaDRFTNjFs03SwIG3aYdqr7TOOpSN7NrxYCnCriKtV1fK-UneTbOyKDTjQo9GB9nw6z-qV4Lb39s8Uw3sjlUYIpIINsMWNBhcjQGSxY6FH8wlobnqhWAXmEb-sVXbqjm8klN2TXMXAdS-OFPoQICj38Iqm8iB52bCg_gOIbRA3bpNdmaoTUXjp2I73ljKq9s5KaCqtErqobd-Xy_s-tsdwMIuzn_zaVxcs8nSUpy1W00]--></g></svg>

<svg xmlns="http://www.w3.org/2000/svg" width="493" height="374" viewBox="0 0 493 374"><rect width="479" height="39.789" x="7" y="328.58" fill="#3D176E" rx="2.5" ry="2.5" style="stroke:#000d19;stroke-width:.5"/><circle cx="22" cy="348.474" r="11" fill="#ADD1B2" style="stroke:#181818;stroke-width:1"/><path d="M24.969 354.115q-.578.297-1.219.438-.64.156-1.344.156-2.5 0-3.828-1.64-1.312-1.657-1.312-4.782t1.312-4.781q1.328-1.656 3.828-1.656.703 0 1.344.156.656.156 1.219.453v2.719q-.625-.579-1.219-.844-.594-.281-1.219-.281-1.343 0-2.031 1.078-.687 1.062-.687 3.156t.687 3.172q.688 1.062 2.031 1.062.625 0 1.219-.265.594-.281 1.219-.86z"/><text x="41" y="354.36" fill="#D9B8FF" font-family="Helvetica" font-size="17" textLength="437">azure_container_service_managed_cluster_snapshot</text><rect width="200" height="39.789" x="50.5" y="167.79" fill="#3D176E" rx="2.5" ry="2.5" style="stroke:#000d19;stroke-width:.5"/><circle cx="65.5" cy="187.685" r="11" fill="#ADD1B2" style="stroke:#181818;stroke-width:1"/><path d="M68.469 193.325q-.578.297-1.219.438-.64.156-1.344.156-2.5 0-3.828-1.64-1.312-1.657-1.312-4.782t1.312-4.781q1.328-1.656 3.828-1.656.703 0 1.344.156.656.156 1.219.453v2.719q-.625-.578-1.219-.844-.594-.281-1.219-.281-1.344 0-2.031 1.078-.687 1.062-.687 3.156t.687 3.172q.688 1.062 2.031 1.062.625 0 1.219-.265.594-.281 1.219-.86z"/><text x="84.5" y="193.57" fill="#D9B8FF" font-family="Helvetica" font-size="17" textLength="158">microsoft_resource</text><rect width="113" height="39.789" x="190" y="7" fill="#3D176E" rx="2.5" ry="2.5" style="stroke:#000d19;stroke-width:.5"/><circle cx="205" cy="26.895" r="11" fill="#ADD1B2" style="stroke:#181818;stroke-width:1"/><path d="M207.969 32.535q-.578.297-1.219.438-.64.156-1.344.156-2.5 0-3.828-1.64-1.312-1.657-1.312-4.782t1.312-4.781q1.328-1.656 3.828-1.656.703 0 1.344.156.656.156 1.219.453v2.719q-.625-.578-1.219-.844-.594-.281-1.219-.281-1.344 0-2.031 1.078-.687 1.062-.687 3.156t.687 3.172q.688 1.062 2.031 1.062.625 0 1.219-.265.594-.281 1.219-.86z"/><text x="224" y="32.78" fill="#D9B8FF" font-family="Helvetica" font-size="17" textLength="71">resource</text><rect width="117" height="39.789" x="286" y="167.79" fill="#3D176E" rx="2.5" ry="2.5" style="stroke:#000d19;stroke-width:.5"/><circle cx="301" cy="187.685" r="11" fill="#ADD1B2" style="stroke:#181818;stroke-width:1"/><path d="M303.969 193.325q-.578.297-1.219.438-.64.156-1.344.156-2.5 0-3.828-1.64-1.312-1.657-1.312-4.782t1.312-4.781q1.328-1.656 3.828-1.656.703 0 1.344.156.656.156 1.219.453v2.719q-.625-.578-1.219-.844-.594-.281-1.219-.281-1.344 0-2.031 1.078-.687 1.062-.687 3.156t.687 3.172q.688 1.062 2.031 1.062.625 0 1.219-.265.594-.281 1.219-.86z"/><text x="320" y="193.57" fill="#D9B8FF" font-family="Helvetica" font-size="17" textLength="75">snapshot</text><g fill="none"><path d="M171.392 223.244c18.45 30.52 45.008 74.446 63.488 105.006" style="stroke:#ffaf37;stroke-width:2"/><path d="m162.08 207.84 4.177 18.508 10.27-6.208z" style="stroke:#ffaf37;stroke-width:2"/></g><path fill="none" d="M323.225 223.157c-18.84 30.52-45.995 74.533-64.865 105.093m74.32-120.41-14.56 12.165 10.21 6.303z" style="stroke:#ffaf37;stroke-width:2"/><g fill="none"><path d="M225.608 62.454C207.158 92.974 180.6 136.9 162.12 167.46" style="stroke:#ffaf37;stroke-width:2"/><path d="m234.92 47.05-14.447 12.3 10.27 6.208z" style="stroke:#ffaf37;stroke-width:2"/></g><path fill="none" d="M267.775 62.367c18.84 30.52 45.995 74.533 64.865 105.093M258.32 47.05l4.35 18.468 10.21-6.303z" style="stroke:#ffaf37;stroke-width:2"/></svg>
